!!!COM: Ce/cile Chaminade
!!!CNT: Francais
!!!TXO: Francais
!!!OTL: "La Fiance/e du soldat"
!!!LYR: Grandmougin, Charles Jean
!!!ENC: Amanda Harris
!!!YOR: Album of Songs, Volume 1
!!!YOR: Da Capo Press
!!!ODT: 1887/
!!NB: Vocal melody and text encoded
**kern	**silbe
*clefG2	*
*k[b-]	*
*M12/8	*
*MM[moderato]	*
=1	=1
2.r	.
4r	.
8r	.
{8d	{Mon
8f	bien-
8g	-ai-
=2	=2
4a	-me/
8a	sert
4g	sa
8f	pa-
4a	-tri-
8a}	-e,}
{8d	{Il
8f	est
8g	par-
=3	=3
4a	-ti
8a	tam-
4g	-bours
8f	bat-
4.a}	-tants,}
{8f	{Me
8a	di-
8b-	-sant:
=4	=4
4cc	"Jean-
8cc	-ne
4b	je
8b	t'en
4g	pri-
8g}	-e,}
{8a	{Jean-
8a	-ne
8a	ne
=5	=5
4f	pleu-
8f	-re
4g	plus,
8g	at-
4.e}	-tends}
{8d	{Que
8f#	j'aie
8a	un
=6	=6
4g	jour
8g	fi-
4e	-ni
8e	mon
4d}	temps!"}
8r	.
{8d	{Il
8fn	est
8g	par-
=7	=7
4a	-ti
8a	pour
4g	la
8f	grand
4a	vil-
8a}	-le,}
{8d	{Il
8f	m'e/-
8g	-cri-
=8	=8
4a	-vit
8a	fi-
4g	-de\-
8f	-le-
4.a}	-ment,}
{8f	{Et
8a	moi,
8b-	bien
=9	=9
4cc	tris-
8cc	-te
4b	mais
8b	tran-
4g	-quil-
8g}	-le,}
{8a	{J'at-
8a	-ten-
8a	dais
=10	=10
4f	tou-
8f	jours
4g	le
8g	mo-
4.e}	-ment}
{8d	{Ou\
8f#	me
8a	re-
=11	=11
4g	-vien-
8g	drait
4e	mon
8e	a-
4.d}	-mant!}
8r	.
{8a	{Lon
8a	lon
=12	=12
*k[f#c#]	*
[4.dd	la,
4dd]	|
8a	je
8f#	chan-
8b	|
8dd	|
4cc#	-te
8a	ma
=13	=13
4.b	pei-
[4.a	-ne
8a]}	|}
8r	.
{8f#	{Aux
8f#	for-
8b	-e^ts,
8f#	aux
=14	=14
[2.a	champs,
4.a]	|
4e	a\
8g	la
=15	=15
4.f#	plai-
4.e}	-ne,}
4r	.
8r	.
{4a	{Mais
8a	les
=16	=16
8a	mer-
8g	-les
8f#	joy-
2.a}	-eux}
8r	.
8r	.
{8b	{Ba-
=17	=17
8b	-bil-
8a	-lent
8g#	au
2.b	bord
4cc#	de
8cc#	l'eau
=18	=18
[2.cc#	clai-
4.cc#]}	-re,}
{8.a	{Lon
8.a	lon
=19	=19
[4.dd	le\-
4dd]	-re,
8a	Je
8f#	chan-
8b	|
8dd	|
4cc#	-te
8a	ma
=20	=20
4.b	pei-
[4.a	-ne
4a]}	|}
8r	.
{8d	{Et
8e	le
8f#	mo-
=21	=21
[2.a	-leil
4.a]	|
8g	rit
8a	dans
8b	les
=22	=22
[1.dd	cieux!
=23	=23
2.dd_	|
4dd]}	|}
8r	.
{8d	{Ah!
8fn	je
8g	mau-
=24	=24
*k[b-]	*
4a	-dis
8a	tout
4g	au
8f	vil-
4a	-la-
8a}	-ge,}
{8d	{Les
8f	fe-
8g	-nai-
=25	=25
4a	-sons
8a	et
4g	les
8f	la-
4.a}	-bours,}
{8f	{Je
8a	vou-
8b-	-drais
=26	=26
4cc	e^-
8cc	-tre
4b	sur
8b	la
4g	pla-
8g}	-ge,}
{8a	{D'ou\
8a	j'at-
8a	-tends
=27	=27
4f	en
8f	vain
4g	tous
8g	les
4.e}	jours,}
{8d	{Des
8f#	|
8a	nou-
=28	=28
8g	-vel-
8g	-les
8g	de
4e	mes
8e	a-
4d}	-mours.}
8r	.
{8d	{He/-
8f	-las!
8g	s'il
=29	=29
4a	a
8a	per-
4g	-du
8f	la
4a	vi-
8a}	e,}
{8d	{Tais-
8f	-toi
8g	pour
=30	=30
4a	ja-
8a	-mais,
4g	o^
8f	ma
4.a}	voix!}
{8f	{Car
8a	je
8b-	veux
=31	=31
4cc	e^tre
8cc	en-
4b-	-se-
8b-	-ve-
4g	-li-
8g}	-e,}
{8a	{La\-
8a	-bas,
8a	au
=32	=32
4f	bord
8f	du
4g	pe-
8g	-tit
4.e}	bois}
{8d	{Ou\
8f#	je
8a	l'em-
=33	=33
4g	-bras-
8g	-sai
4e	tant
8e	de
4d}	fois!}
8r	.
{4a	{Lon
8a	lon
=34	=34
*k[f#c#]	*
[4.dd	la!
4dd]	|
8a	je
8f#	chan-
8b	|
8dd	|
4cc#	-te
8a	ma
=35	=35
4.b	pei-
[4.a	-ne
8a]}	|}
8r	.
{8f#	{Aux
8f#	for-
8b	-e^ts,
8f#	aux
=36	=36
[2.a	champs,
4.a]	|
4e	a\
8g	la
=37	=37
4.f#	plai-
4.e}	-ne,}
4r	.
8r	.
{4a	{Mais
8a	les
=38	=38
8a	mer-
8g	-les
8f#	joy-
2.a}	-eux}
8r	.
8r	.
{8b	{Ba-
=39	=39
8b	-bil-
8a	-lent
8g#	au
2.b	bord
4cc#	de
8cc#	l'eau
=40	=40
[2.cc#	clai-
4.cc#]}	-re.}
{4a	{Lon
8a	lon
=41	=41
[4.dd	le\-
4dd]	-re,
8a	Je
8f#	chan-
8b	|
8dd	|
4cc#	-te
8a	ma
=42	=42
4.b	pei-
4.a}	-ne}
4r	.
8r	.
{8d	{Et
8e	le
8f#	so-
=43	=43
[2.a	-leil
4.a]	|
8g	rit
8a	dans
8b-	les
=44	=44
[1.ff#	cieux!
=45	=45
2.ff#]}	|}
2.r	.
*-	*-
